icons/groovehq.svg

<?xml version="1.0" encoding="UTF-8"?>
<svg width="512px" height="132px" viewBox="0 0 512 132" version="1.1" xmlns="http://www.w3.org/2000/svg" xmlns:xlink="http://www.w3.org/1999/xlink" preserveAspectRatio="xMidYMid">
    <g>
        <path d="M43.945897,112.520966 C33.0745144,112.520966 22.8699567,109.715403 14.0116511,104.814469 L4.71774499,121.063081 C16.3206076,127.503224 29.6943643,131.191715 43.945897,131.191715 C58.1974298,131.191715 71.5711866,127.503224 83.1740492,121.063081 L73.8795951,104.814469 C65.0212893,109.715403 54.8172794,112.520966 43.945897,112.520966" fill="#0BA0BE"></path>
        <path d="M98.6429616,0 L98.6429616,19.8039761 L80.6869074,19.8039761 C80.6792363,19.8039761 80.6573191,19.8094772 80.6452648,19.8111275 C85.0566101,26.6886083 87.6011747,34.9683207 87.6011747,44.0275395 C87.6011747,68.7632556 68.4385888,88.1750029 43.8005872,88.1750029 C18.9916331,88.1750029 0,68.7632556 0,44.0275395 C0,19.1196387 18.9916331,0.0522604927 43.8005872,0.0522604927 C55.2659209,0.0522604927 65.5417087,4.18469017 73.2564947,11.1100306 C75.3238158,8.80451769 78.5258906,5.45214466 80.4200679,4.04661244 C82.4928683,2.50850363 82.1772636,2.55746347 84.4078667,1.53205759 C86.6395659,0.506101609 90.4240849,0 98.6429616,0 L98.6429616,0 Z M199.599428,0.0522604927 C224.237429,0.0522604927 243.400015,19.1196387 243.400015,44.0275395 C243.400015,68.7632556 224.237429,88.1750029 199.599428,88.1750029 C174.790474,88.1750029 155.798841,68.7632556 155.798841,44.0275395 C155.798841,19.1196387 174.790474,0.0522604927 199.599428,0.0522604927 Z M297.325656,0.0583117076 C321.961466,0.0583117076 341.123504,19.1245896 341.123504,44.0308401 C341.123504,68.7649061 321.961466,88.1750029 297.325656,88.1750029 C272.518346,88.1750029 253.527809,68.7649061 253.527809,44.0308401 C253.527809,19.1245896 272.518346,0.0583117076 297.325656,0.0583117076 Z M471.20756,0.0107271537 C478.557428,0.0107271537 484.880485,1.32879179 490.002488,3.92861375 C495.102577,6.51908383 499.360502,9.95892447 502.657917,14.1524164 C505.940534,18.3354562 508.348116,23.1082145 509.814366,28.3397648 C511.265818,33.5300569 512.001132,38.8760302 512.001132,44.2319055 L512.001132,44.2319055 L512.001132,50.3419823 L446.989269,50.3419823 C447.150359,53.1860534 447.864854,56.4746134 449.120698,58.8549414 C450.575439,61.6137453 452.512903,63.9995744 454.882679,65.9431147 C457.271633,67.9075587 460.079749,69.4533691 463.225935,70.5403875 C466.388011,71.6362074 469.706794,72.1907187 473.089135,72.1907187 C477.619929,72.1907187 481.598961,71.1284555 484.917743,69.0325349 C488.32474,66.8794023 491.5049,63.9929729 494.369998,60.4552128 L494.369998,60.4552128 L495.136549,59.5068221 L508.743169,69.9528694 L507.972791,70.9529705 C499.205441,82.3380559 486.778497,88.1092648 471.034416,88.1092648 C464.510819,88.1092648 458.504464,86.9776875 453.178084,84.7480898 C447.850608,82.516292 443.270502,79.3806624 439.56872,75.4264687 C435.8768,71.4838271 432.994714,66.7748814 431.005745,61.4289082 C429.022257,56.1027387 428.015718,50.2605657 428.015718,44.0613713 C428.015718,37.8511744 429.111568,31.9957989 431.276421,26.6597275 C433.436889,21.3203555 436.462532,16.6180114 440.266776,12.6803208 C444.076499,8.73767926 448.678523,5.60700075 453.944631,3.37355231 C459.215671,1.14175423 465.023129,0.0107271537 471.20756,0.0107271537 Z M361.498045,1.98710896 L383.855582,62.4205925 L406.551737,1.98710896 L426.198688,1.98710896 L393.720426,86.1540071 L373.995122,86.1540071 L341.850546,1.98710896 L361.498045,1.98710896 Z M151.854766,5.50109778e-05 L151.854766,19.8040311 L133.898712,19.8040311 C133.716914,19.8040311 132.517606,20.1966654 131.250795,20.6253279 L130.802429,20.7775359 C130.055637,21.0317736 129.32416,21.283961 128.801364,21.4615138 L128.801364,21.4615138 L128.801364,86.153952 L110.719835,86.153952 L110.719835,1.97000052 L128.801364,1.97000052 L128.801364,8.59002963 C130.509794,6.80217068 132.364521,4.98735634 133.631872,4.04666745 C135.70522,2.50855865 135.389068,2.55751848 137.620219,1.5321126 C139.85137,0.506156619 143.635889,5.50109778e-05 151.854766,5.50109778e-05 L151.854766,5.50109778e-05 Z M297.325656,18.4375017 C283.296581,18.4375017 272.518346,29.9458122 272.518346,44.0308401 C272.518346,58.115318 283.296581,69.6241785 297.325656,69.6241785 C311.525684,69.6241785 321.961466,58.115318 321.961466,44.0308401 C321.961466,29.9458122 311.525684,18.4375017 297.325656,18.4375017 Z M43.8005872,18.4325507 C29.7709642,18.4325507 18.9916331,29.9414114 18.9916331,44.0275395 C18.9916331,58.1131175 29.7709642,69.622528 43.8005872,69.622528 C58.0017109,69.622528 68.4385888,58.1131175 68.4385888,44.0275395 C68.4385888,29.9414114 58.0017109,18.4325507 43.8005872,18.4325507 Z M199.599428,18.4325507 C185.569805,18.4325507 174.790474,29.9419615 174.790474,44.0275395 C174.790474,58.1131175 185.569805,69.622528 199.599428,69.622528 C213.800552,69.622528 224.237429,58.1131175 224.237429,44.0275395 C224.237429,29.9419615 213.800552,18.4325507 199.599428,18.4325507 Z M470.865107,14.9000165 C467.298114,14.9000165 463.989195,15.584904 461.02766,16.9359753 C458.048042,18.2963984 455.500738,20.0809567 453.456978,22.2423406 C451.403902,24.4130765 449.786427,26.8627182 448.649483,29.5203018 C447.707051,31.7289953 447.153647,33.2621531 446.999132,35.4251874 L446.999132,35.4251874 L492.996901,35.4251874 C492.80622,32.6201742 492.304321,30.6810349 491.503256,28.3100589 C490.594249,25.6299207 489.215121,23.265546 487.40149,21.2812977 C485.590049,19.3064012 483.291502,17.7330853 480.572697,16.6097598 C477.828688,15.4748819 474.561958,14.9000165 470.865107,14.9000165 Z" fill="#000000"></path>
    </g>
</svg>

<svg xmlns="http://www.w3.org/2000/svg" viewBox="0 0 512.001 131.192">
  <path fill="#0ba0be" d="M43.946 112.521c-10.871 0-21.076-2.806-29.934-7.707l-9.294 16.25c11.603 6.44 24.976 10.128 39.228 10.128 14.251 0 27.625-3.689 39.228-10.129l-9.294-16.249c-8.859 4.901-19.063 7.707-29.934 7.707"/>
  <path d="M98.643 0v19.804H80.687c-.008 0-.03.005-.042.007 4.412 6.878 6.956 15.157 6.956 24.217 0 24.735-19.162 44.147-43.8 44.147C18.99 88.175 0 68.763 0 44.028 0 19.12 18.992.052 43.8.052c11.466 0 21.742 4.133 29.456 11.058 2.068-2.305 5.27-5.658 7.164-7.063 2.073-1.538 1.757-1.49 3.988-2.515C86.64.506 90.424 0 98.643 0zm100.956.052c24.638 0 43.801 19.068 43.801 43.976 0 24.735-19.163 44.147-43.8 44.147-24.81 0-43.801-19.412-43.801-44.147 0-24.908 18.991-43.976 43.8-43.976zm97.727.006c24.635 0 43.798 19.067 43.798 43.973 0 24.734-19.163 44.144-43.798 44.144-24.808 0-43.798-19.41-43.798-44.144 0-24.906 18.99-43.973 43.798-43.973zM471.208.011c7.35 0 13.672 1.318 18.794 3.918 5.1 2.59 9.359 6.03 12.656 10.223 3.283 4.183 5.69 8.956 7.156 14.188a59.009 59.009 0 0 1 2.187 15.892v6.11H446.99c.161 2.844.876 6.133 2.132 8.513a22.948 22.948 0 0 0 5.762 7.088c2.389 1.965 5.197 3.51 8.343 4.597a30.05 30.05 0 0 0 9.863 1.65c4.53 0 8.51-1.062 11.829-3.157 3.407-2.154 6.587-5.04 9.452-8.578l.767-.948 13.606 10.446-.77 1c-8.768 11.385-21.194 17.156-36.939 17.156-6.523 0-12.53-1.131-17.856-3.36-5.327-2.233-9.907-5.368-13.61-9.323-3.691-3.942-6.573-8.651-8.562-13.997-1.984-5.326-2.99-11.168-2.99-17.368 0-6.21 1.096-12.065 3.26-17.401 2.16-5.34 5.187-10.042 8.99-13.98 3.81-3.942 8.413-7.073 13.679-9.306C459.215 1.142 465.023.01 471.208.01zm-109.71 1.976 22.358 60.434 22.696-60.434h19.647L393.72 86.154h-19.725L341.851 1.987zM151.855 0v19.804h-17.956c-.182 0-1.381.393-2.648.821l-.449.153c-.746.254-1.478.506-2 .684v64.692H110.72V1.97H128.8v6.62c1.709-1.788 3.564-3.603 4.83-4.543 2.074-1.538 1.758-1.49 3.99-2.515C139.85.506 143.635 0 151.854 0zm145.47 18.438c-14.028 0-24.807 11.508-24.807 25.593 0 14.084 10.779 25.593 24.808 25.593 14.2 0 24.635-11.509 24.635-25.593 0-14.085-10.435-25.593-24.635-25.593zm-253.524-.005c-14.03 0-24.81 11.508-24.81 25.594 0 14.086 10.78 25.595 24.81 25.595 14.2 0 24.638-11.509 24.638-25.595 0-14.086-10.437-25.594-24.638-25.594zm155.798 0c-14.03 0-24.809 11.509-24.809 25.594 0 14.086 10.78 25.595 24.81 25.595 14.2 0 24.637-11.509 24.637-25.595 0-14.085-10.436-25.594-24.638-25.594zM470.865 14.9c-3.567 0-6.876.685-9.837 2.036-2.98 1.36-5.527 3.145-7.571 5.306-2.053 2.171-3.67 4.62-4.808 7.278-.942 2.209-1.495 3.742-1.65 5.905h45.998c-.19-2.805-.693-4.744-1.494-7.115-.909-2.68-2.288-5.045-4.102-7.029-1.81-1.975-4.11-3.548-6.828-4.671-2.744-1.135-6.011-1.71-9.708-1.71z"/>
</svg>
